src/lib/packages/icons/src/assets/filled/badge-dollar.svg

<svg width="24" height="24" viewBox="0 0 24 24" fill="none" xmlns="http://www.w3.org/2000/svg">
<path fill-rule="evenodd" clip-rule="evenodd" d="M20.1219 9.88002L19.681 9.43901C19.4 9.15801 19.2419 8.77601 19.2419 8.37801V7.757C19.2419 6.101 17.9 4.75902 16.244 4.75902H15.623C15.225 4.75902 14.844 4.60102 14.562 4.32002L14.1209 3.87901C12.9499 2.70801 11.0519 2.70801 9.88094 3.87901L9.4399 4.32002C9.1589 4.60102 8.77698 4.75902 8.37898 4.75902H7.75801C6.10201 4.75902 4.75996 6.101 4.75996 7.757V8.37801C4.75996 8.77601 4.602 9.15701 4.321 9.43901L3.87996 9.88002C2.70896 11.051 2.70896 12.949 3.87996 14.12L4.321 14.561C4.602 14.842 4.75996 15.224 4.75996 15.622V16.243C4.75996 17.899 6.10201 19.241 7.75801 19.241H8.37898C8.77698 19.241 9.1579 19.399 9.4399 19.68L9.88094 20.121C11.0519 21.292 12.9499 21.292 14.1209 20.121L14.562 19.68C14.843 19.399 15.225 19.241 15.623 19.241H16.244C17.9 19.241 19.2419 17.899 19.2419 16.243V15.622C19.2419 15.224 19.4 14.843 19.681 14.561L20.1219 14.12C21.2929 12.949 21.2929 11.051 20.1219 9.88002ZM14.035 15.535C13.675 15.896 13.2209 16.125 12.7299 16.209V16.5C12.7299 16.914 12.3939 17.25 11.9799 17.25C11.5659 17.25 11.2299 16.914 11.2299 16.5V16.208C10.1979 16.013 9.38599 15.165 9.26399 14.085C9.21699 13.673 9.513 13.302 9.925 13.255C10.332 13.209 10.708 13.504 10.754 13.916C10.808 14.392 11.2079 14.75 11.6839 14.75H12.3149C12.5629 14.75 12.796 14.652 12.974 14.475C13.152 14.297 13.249 14.062 13.249 13.815C13.249 13.386 12.9569 13.013 12.5389 12.907L11.0939 12.548C10.5639 12.414 10.0919 12.106 9.76192 11.679C9.43292 11.264 9.24898 10.731 9.24898 10.185C9.24898 8.99801 10.103 8.01001 11.229 7.79601V7.50002C11.229 7.08602 11.565 6.75002 11.979 6.75002C12.393 6.75002 12.729 7.08602 12.729 7.50002V7.78902C13.779 7.97002 14.61 8.822 14.734 9.916C14.781 10.328 14.485 10.699 14.073 10.746C13.671 10.794 13.29 10.497 13.244 10.085C13.19 9.60901 12.7899 9.25102 12.3139 9.25102H11.6829C11.1669 9.25102 10.748 9.67002 10.748 10.186C10.748 10.395 10.816 10.598 10.941 10.755C11.072 10.924 11.253 11.042 11.458 11.094L12.9029 11.453C13.9909 11.728 14.748 12.7 14.748 13.816C14.75 14.463 14.496 15.074 14.035 15.535Z" fill="currentColor"/>
</svg>

<svg xmlns="http://www.w3.org/2000/svg" width="24" height="24" fill="none"><path fill="currentColor" fill-rule="evenodd" d="m20.122 9.88-.441-.441a1.501 1.501 0 0 1-.44-1.061v-.621a2.998 2.998 0 0 0-2.997-2.998h-.621c-.398 0-.779-.158-1.061-.439l-.441-.441a2.998 2.998 0 0 0-4.24 0l-.441.441a1.5 1.5 0 0 1-1.061.439h-.621A2.998 2.998 0 0 0 4.76 7.757v.621c0 .398-.158.779-.439 1.061l-.441.441a2.998 2.998 0 0 0 0 4.24l.441.441a1.5 1.5 0 0 1 .439 1.061v.621a2.998 2.998 0 0 0 2.998 2.998h.621c.398 0 .779.158 1.06.439l.442.441a2.998 2.998 0 0 0 4.24 0l.441-.441a1.5 1.5 0 0 1 1.061-.439h.621a2.998 2.998 0 0 0 2.998-2.998v-.621c0-.398.158-.779.439-1.061l.44-.441a2.998 2.998 0 0 0 0-4.24Zm-6.087 5.655c-.36.361-.814.59-1.305.674v.291a.75.75 0 0 1-1.5 0v-.292a2.437 2.437 0 0 1-1.966-2.123.75.75 0 1 1 1.49-.169.937.937 0 0 0 .93.834h.63a.929.929 0 0 0 .66-.275.929.929 0 0 0 .275-.66.937.937 0 0 0-.71-.908l-1.445-.359a2.444 2.444 0 0 1-1.845-2.363c0-1.187.854-2.175 1.98-2.389V7.5a.75.75 0 0 1 1.5 0v.289a2.434 2.434 0 0 1 2.005 2.127.75.75 0 1 1-1.49.169.937.937 0 0 0-.93-.834h-.631a.935.935 0 0 0-.225 1.843l1.445.359a2.437 2.437 0 0 1 1.845 2.363 2.407 2.407 0 0 1-.713 1.719Z" clip-rule="evenodd"/></svg>
